source/img/icon-button-left.svg

<svg viewBox="0 0 15 21" fill="none" xmlns="http://www.w3.org/2000/svg">
<g>
<path d="M11.8116 1.40061C11.713 1.28894 11.5958 1.20035 11.4668 1.1399C11.3378 1.07945 11.1994 1.04834 11.0598 1.04834C10.9201 1.04834 10.7818 1.07945 10.6528 1.1399C10.5238 1.20035 10.4066 1.28894 10.3079 1.40061L3.24844 9.37194C3.16968 9.46069 3.1072 9.5661 3.06457 9.68214C3.02194 9.79818 3 9.92258 3 10.0482C3 10.1738 3.02194 10.2982 3.06457 10.4143C3.1072 10.5303 3.16968 10.6357 3.24844 10.7245L10.3079 18.6958C10.7242 19.1658 11.3953 19.1658 11.8116 18.6958C12.2279 18.2258 11.883 17.7322 11.4668 17.2622L7.74854 13.0836L5.12914 10.0172L11.8207 2.30298C11.8207 2.30298 12.2279 1.86105 11.8116 1.40061Z" fill="currentColor"/>
</g>
</svg>

<svg viewBox="0 0 15 21" fill="none" xmlns="http://www.w3.org/2000/svg"><path d="M11.812 1.4a1.063 1.063 0 00-.345-.26.958.958 0 00-.814 0c-.13.06-.246.149-.345.26l-7.06 7.972a.972.972 0 00-.183.31 1.063 1.063 0 000 .732.973.973 0 00.183.31l7.06 7.972a.978.978 0 001.504 0c.416-.47.071-.964-.345-1.434l-3.718-4.178-2.62-3.067 6.692-7.714s.407-.442-.01-.902z" fill="currentColor"/></svg>
